!!!OTL: STEH ICH AN MEINEM FENSTERLEIN
!!!ARE: Europa, Mitteleuropa, Deutschland, Rheinland
!!!SCT: B0461
!!!YEM: Copyright 1995, estate of Helmut Schaffrath.
**kern
*ICvox
*Ivox
*M3/4
*k[]
*C:
{8G
8E
8F
=1
4.G
8A
8G
8G
=2
4F#
8r}
{8G
8G
8G
=3
4.e
8d
8d
8c
=4
4G
8r}
{8c
8c
8B
=5
4.A
8A
8A
8c
=6
4G
4r}
{4G
=7
4F
4G
8B
8d
=8
4c
8r}
==
!!!AGN: Liebes - Lied, Leid, Klage
!!!ONB: ESAC (Essen Associative Code) Database: BOEHME
!!!AMT: simple triple
!!!AIN: vox
!!!EED: Helmut Schaffrath
!!!EEV: 1.0
*-
